X:1
T:Title
%%score { 1 | 2 }
L:1/8
Q:1/4=112
M:4/4
K:C
V:1 treble nm="Grand Piano"
V:2 bass 
V:1
 [CE]3 [DF] [EG]2 [Ec]2 | [Fc]4 [FB]2 z2 | [FA]3 [FA] [GB]2 [FA]2 | [EG]6 z2 | %4
w: F.~B.~DeLeone * * *||||
 [CE]3 [DF] [EG]2 e2 | e4 d4 | c3 A E2 ^F2 | [B,DG]6 z2 | d3 d c2 B2 | [Ec]4 [EG]4 | %10
w: ||||||
 [Ec]3 [Ec] [_B,EG]2 [B,E^G]2 | [A,FA]6 z2 | A3 B d2 c2 | e4 G4 | [^Fe]3 [FA] [FB]2 [Fc]2 | %15
w: |||||
 [Fd]6 z2 | [Ge]2 [Ge]2 [Ge]2 [Ge]2 | e4 d4 | c3 B A2 B2 | [EG]6 z2 | [Ge]2 [Ge]2 [Ge]2 [Ge]2 | %21
w: ||||||
 [Ge]4 [Gd]4 | c3 A E2 ^F2 | [B,DG]6 z2 | [Ge]2 [Ge]2 [Ge]2 [Ge]2 | e4 d4 | c3 B A2 B2 | [EG]6 z2 | %28
w: |||||||
 [Ec]2 [Ec]2 [EG]3 [Gc] | c4 ^G4 | %30
w: ||
 G2 A2 B3 c[Q:1/4=110][Q:1/4=109][Q:1/4=107][Q:1/4=105][Q:1/4=103][Q:1/4=102][Q:1/4=100][Q:1/4=98][Q:1/4=96][Q:1/4=95][Q:1/4=93][Q:1/4=91][Q:1/4=89][Q:1/4=88][Q:1/4=86] | %31
w: |
 [Ec]6 z2 |] %32
w: |
V:2
 [C,G,]3 [C,G,] [C,G,]2 [C,G,]2 | [G,,G,]4 [G,,G,]2 z2 | [G,,G,]3 [G,,G,] [G,,G,]2 [G,,G,]2 | %3
 [C,G,]6 z2 | [C,G,]3 [C,G,] [C,G,]2[K:treble] [G,CE]2 | [G,B,G]4 [G,B,G]4 | %6
 [D,CD]3 [D,CD] [D,CD]2 [D,CD]2 | G,,6 z2 | [G,B,F]3 [G,B,F] [G,B,F]2 [G,B,F]2 | [C,G,]4 [C,G,]4 | %10
 [C,G,]3 [C,A,] C,2 C,2 | F,,6 z2 | [F,CF]3 [F,CF] [F,CF]2 [^G,C^F]2 | [G,CG]4[K:bass] [G,CE]4 | %14
 [D,C]3 [D,C] [D,C]2 [D,C]2 | [G,,B,]6 z2 | [C,C]2 [C,B,]2 [C,A,]2 [C,G,]2 | %17
 [F,A,F]4[K:treble] [F,A,F]4 | [G,B,F]3 [G,B,F] [G,B,F]2 [G,B,F]2 | [C,C]6 z2 | %20
 [C,C]2 [C,B,]2 [C,A,]2 [^C,_B,]2 | [D,B,]4 [D,B,]4 | [D,CD]3 [D,CD] [D,CD]2 [D,CD]2 | G,,6 z2 | %24
 [C,C]2 [C,B,]2 [C,A,]2 [C,G,]2 | [F,A,F]4[K:treble] [F,A,F]4 | %26
 [G,B,F]3 [G,B,F] [G,B,F]2 [G,B,F]2 | [C,C]6 z2 | [C,_B,]2 [C,B,]2 [C,B,]3 [E,B,] | %29
 [F,A,F]4 [^F,CD]4 | [G,E]2 [G,_E^F]2 [G,D=F]3 [G,CF] | [C,C]6 z2 |] %32

